X: 37576
T: Smell Of The Bog, The
R: hornpipe
M: 4/4
K: Gmajor
|:(3gfe|dGBd ec (3gfe|dBGB d2ed|c2 Ac B2GB|(3ABA (3GFE D2 (3gfe|
dGBd ec (3gfe|dBGB dgfg|(3efg ce dgfa|g2gf g2:|
|:ga|bgaf gBfB|gBfB ed^cd|efga bgaf|(3gfe (3fed e2ga|
bgaf gBfB|gBfB ed^cd|(3efg ce dgfa|g2gf g2:|

